apps/mobile/src/assets/images/scan.svg

<svg width="33" height="33" viewBox="0 0 33 33" fill="none" xmlns="http://www.w3.org/2000/svg">
<path fill-rule="evenodd" clip-rule="evenodd" d="M1.95455 12.1364C1.08182 12.1364 0.5 11.5545 0.5 10.6818V4.86364C0.5 2.53636 2.53636 0.5 4.86364 0.5H10.6818C11.5545 0.5 12.1364 1.08182 12.1364 1.95455C12.1364 2.82727 11.5545 3.40909 10.6818 3.40909H4.86364C3.99091 3.40909 3.40909 3.99091 3.40909 4.86364V10.6818C3.40909 11.5545 2.82727 12.1364 1.95455 12.1364ZM10.6818 32.5H4.86364C2.53636 32.5 0.5 30.4636 0.5 28.1363V22.3182C0.5 21.4454 1.08182 20.8636 1.95455 20.8636C2.82727 20.8636 3.40909 21.4454 3.40909 22.3182V28.1363C3.40909 29.0091 3.99091 29.5909 4.86364 29.5909H10.6818C11.5545 29.5909 12.1364 30.1727 12.1364 31.0454C12.1364 31.9182 11.5545 32.5 10.6818 32.5ZM22.3182 32.5H28.1363C30.4636 32.5 32.5 30.4636 32.5 28.1363V22.3182C32.5 21.4454 31.9182 20.8636 31.0454 20.8636C30.1727 20.8636 29.5909 21.4454 29.5909 22.3182V28.1363C29.5909 29.0091 29.0091 29.5909 28.1363 29.5909H22.3182C21.4454 29.5909 20.8636 30.1727 20.8636 31.0454C20.8636 31.9182 21.4454 32.5 22.3182 32.5ZM31.0454 12.1364C30.1727 12.1364 29.5909 11.5545 29.5909 10.6818V4.86364C29.5909 3.99091 29.0091 3.40909 28.1363 3.40909H22.3182C21.4454 3.40909 20.8636 2.82727 20.8636 1.95455C20.8636 1.08182 21.4454 0.5 22.3182 0.5H28.1363C30.4636 0.5 32.5 2.53636 32.5 4.86364V10.6818C32.5 11.5545 31.9182 12.1364 31.0454 12.1364ZM1.95455 17.9544H31.0455C31.9182 17.9544 32.5 17.3726 32.5 16.4999C32.5 15.6272 31.9182 15.0453 31.0455 15.0453H1.95455C1.08182 15.0453 0.5 15.6272 0.5 16.4999C0.5 17.3726 1.08182 17.9544 1.95455 17.9544Z" fill="color"/>
</svg>

<svg width="33" height="33" viewBox="0 0 33 33" fill="none" xmlns="http://www.w3.org/2000/svg"><path fill-rule="evenodd" clip-rule="evenodd" d="M1.955 12.136c-.873 0-1.455-.581-1.455-1.454V4.864C.5 2.536 2.536.5 4.864.5h5.818c.873 0 1.454.582 1.454 1.455 0 .872-.581 1.454-1.454 1.454H4.864c-.873 0-1.455.582-1.455 1.455v5.818c0 .873-.582 1.454-1.454 1.454ZM10.682 32.5H4.864C2.536 32.5.5 30.464.5 28.136v-5.818c0-.873.582-1.454 1.455-1.454.872 0 1.454.581 1.454 1.454v5.818c0 .873.582 1.455 1.455 1.455h5.818c.873 0 1.454.582 1.454 1.454 0 .873-.581 1.455-1.454 1.455Zm11.636 0h5.818c2.328 0 4.364-2.036 4.364-4.364v-5.818c0-.873-.582-1.454-1.455-1.454-.872 0-1.454.581-1.454 1.454v5.818c0 .873-.582 1.455-1.455 1.455h-5.818c-.873 0-1.454.582-1.454 1.454 0 .873.581 1.455 1.454 1.455Zm8.727-20.364c-.872 0-1.454-.581-1.454-1.454V4.864c0-.873-.582-1.455-1.455-1.455h-5.818c-.873 0-1.454-.582-1.454-1.454 0-.873.581-1.455 1.454-1.455h5.818C30.464.5 32.5 2.536 32.5 4.864v5.818c0 .873-.582 1.454-1.455 1.454Zm-29.09 5.818h29.09c.873 0 1.455-.581 1.455-1.454s-.582-1.455-1.454-1.455H1.954C1.082 15.045.5 15.627.5 16.5c0 .873.582 1.454 1.455 1.454Z" fill="color"/></svg>
